usr/share/icons/biglinux-icons-material/22/actions/view-bank-account-checking.svg

<svg xmlns="http://www.w3.org/2000/svg" viewBox="0 0 22 22">
  <defs id="defs3051">
    <style type="text/css" id="current-color-scheme">
      .ColorScheme-Text {
        color:#dedede;
      }
      </style>
  </defs>
 <path 
    style="fill:currentColor;fill-opacity:1;stroke:none" 
    d="M 3 3 L 3 5 L 3 6 L 3 19 L 10 19 L 10 18 L 4 18 L 4 7 L 18 7 L 18 12 L 19 12 L 19 3 L 17 3 L 17 5 L 15 5 L 15 3 L 12 3 L 12 5 L 10 5 L 10 3 L 7 3 L 7 5 L 5 5 L 5 3 L 3 3 z M 7.5 8 C 6.115 8 5 9.1152 5 10.5 C 5 10.93344 5.1180469 11.334793 5.3105469 11.689453 L 6.0703125 10.929688 C 6.0293125 10.792608 6 10.65078 6 10.5 C 6 9.66912 6.669 9 7.5 9 C 7.65079 9 7.7925975 9.0293115 7.9296875 9.0703125 L 8.6894531 8.3105469 C 8.3348031 8.1180769 7.93343 8 7.5 8 z M 9.6894531 9.3105469 L 8.9296875 10.070312 C 8.9706875 10.207292 9 10.34922 9 10.5 C 9 11.33089 8.331 12 7.5 12 C 7.34921 12 7.2074025 11.970688 7.0703125 11.929688 L 6.3105469 12.689453 C 6.6651869 12.881923 7.06657 13 7.5 13 C 8.885 13 10 11.88481 10 10.5 C 10 10.06666 9.8819531 9.6650969 9.6894531 9.3105469 z M 11 13 L 11 19 L 19 19 L 19 13 L 11 13 z M 12 14 L 18 14 L 18 15 L 17 15 L 17 17 L 18 17 L 18 18 L 12 18 L 12 17 L 13 17 L 13 15 L 12 15 L 12 14 z M 15 15 C 14.446 15 14 15.446 14 16 C 14 16.554 14.446 17 15 17 C 15.554 17 16 16.554 16 16 C 16 15.446 15.554 15 15 15 z "
	class="ColorScheme-Text"
    />  
</svg>

<svg xmlns="http://www.w3.org/2000/svg" viewBox="0 0 22 22"><path d="M3 3v16h7v-1H4V7h14v5h1V3h-2v2h-2V3h-3v2h-2V3H7v2H5V3H3zm4.5 5A2.495 2.495 0 0 0 5 10.5c0 .433.118.835.31 1.19l.76-.76A1.489 1.489 0 0 1 6 10.5C6 9.67 6.669 9 7.5 9c.15 0 .293.03.43.07l.76-.76A2.482 2.482 0 0 0 7.5 8zm2.19 1.31-.76.76c.04.137.07.28.07.43 0 .83-.669 1.5-1.5 1.5-.15 0-.293-.03-.43-.07l-.76.76c.355.192.757.31 1.19.31 1.385 0 2.5-1.115 2.5-2.5 0-.433-.118-.835-.31-1.19zM11 13v6h8v-6h-8zm1 1h6v1h-1v2h1v1h-6v-1h1v-2h-1v-1zm3 1c-.554 0-1 .446-1 1s.446 1 1 1 1-.446 1-1-.446-1-1-1z" style="fill:currentColor;fill-opacity:1;stroke:none;color:#dedede"/></svg>
